public/avatar/body/80.svg

<svg xmlns:xlink="http://www.w3.org/1999/xlink" height="82" width="84.85" xmlns="http://www.w3.org/2000/svg"><g transform="translate(37.4 42.25)"><use height="38" transform="translate(-11.95 -17.45)" width="32.05" xlink:href="#a"/><use height="38.95" transform="translate(-12.45 -17.95)" width="33.05" xlink:href="#b"/><use height="13.2" transform="translate(-3.55 5.7)" width="15.4" xlink:href="#c"/></g><defs><path d="M27.35 7.4q2.15 4.15 3.55 8.75 1.45 4.7 1.15 9.5-.35 4.95-4.2 8.1-3.8 3.2-8.75 4.05l-2.6.2q-3.6 0-7.05-1.15-4.65-1.6-7.1-5.5Q-.2 27.4.05 23q.2-4.4 2-9.3Q3.85 8.75 7 5.05 10.1 1.3 14.7.1l1.8-.1q1.9.05 3.7.8 4.75 2.05 7.15 6.6" fill="#fff" fill-rule="evenodd" transform="translate(-.05)" id="d"/><path d="M27.35 7.4Q24.95 2.85 20.2.8 17.55-.3 14.7.1 10.1 1.3 7 5.05q-3.15 3.7-4.95 8.65-1.8 4.9-2 9.3-.25 4.4 2.3 8.35 2.45 3.9 7.1 5.5 4.65 1.55 9.65.95 4.95-.85 8.75-4.05 3.85-3.15 4.2-8.1.3-4.8-1.15-9.5-1.4-4.6-3.55-8.75Z" fill="none" stroke="#333" stroke-linecap="round" stroke-linejoin="round" transform="translate(.45 .5)" id="e"/><use height="38" width="32.05" xlink:href="#d" id="a"/><use height="38.95" width="33.05" xlink:href="#e" id="b"/><g id="c" fill-rule="evenodd"><path d="M6.9 17.95q-1.7.95-2.7.95-2.25 0-5.25-3-3.35-3.35-2.25-7.4.7-2.55 3.15-2.8 2.4-.25 4.05 2 2.55-2.8 4.9-1.65Q11.55 7.4 11.85 10q.2 2.15-2.25 5.65-.95 1.25-2.7 2.3" fill="#b6b6b6" transform="translate(3.55 -5.7)"/><path d="M3.95 9.65q.25-.7.85-1.4 1.15-1.4 2.9-1.4 3.15 0 3.15 4.15 0 2.55-2.9 5-2.45 2.1-3.85 2.1-1.35 0-3.9-2.2-2.85-2.45-2.85-4.9 0-4.15 3.1-4.15 2.8 0 3.5 2.8" fill="#ff3ac0" transform="translate(3.55 -5.7)"/><path d="M3.45 8.65 3.4 8.5l.45 1.65q.2 1.15-.2 1.45-.8.65-2.55-1.05Q-.6 8.95-.65 8q-.1-1.5 1.9-1 2.05.5 2.2 1.65m6.7 4.45q-.7 1.45-1.05 1.5-.7.15-.85-1.7 0-1.25-.4-2-1.45-1.55-1.7-2.55-.2-.9.75-1.3l1.7.05q1.65.8 2.05 2.65.35 1.7-.5 3.35" fill="#ff6ed2" transform="translate(3.55 -5.7)"/><path d="M9.25 10.95H9.2l-1-1.6q-.9-.8-.85-1.3.15-1.15 1.5-.2 1 .75 1.35 2.25.3 1.55-.95.85M3.2 9.5l-.05.35q-.6.1-1.85-1.15-.5-.45-.4-.85.15-.4.85-.2Q2.7 8 3.2 9.5" fill="#ffb0e6" transform="translate(3.55 -5.7)"/><path d="M4.2 17.95q-1.85.15-5.3-3.45l-.3-.35q-1.65-2.4-.6-4.75.6-1.3 1.25.5L.6 13.6q.55 1.05 2.25 2.5 1.4 1.2 1.35 1.85m.95-6.85.5 1.5-1.2-.8q-.75-.8-.75-1.6 0-.4.8-1.5.8-1.2 1.25-.95.45.3-.6 2.35v1" fill="#d931a3" transform="translate(3.55 -5.7)"/></g></defs></svg>

<?xml version="1.0" encoding="UTF-8" standalone="no"?>
<svg xmlns:xlink="http://www.w3.org/1999/xlink" height="82.0px" width="84.85px" xmlns="http://www.w3.org/2000/svg">
  <g transform="matrix(1.0, 0.0, 0.0, 1.0, 37.4, 42.25)">
    <use height="38.0" transform="matrix(1.0, 0.0, 0.0, 1.0, -11.95, -17.45)" width="32.05" xlink:href="#sprite0"/>
    <use height="38.95" transform="matrix(1.0, 0.0, 0.0, 1.0, -12.45, -17.95)" width="33.05" xlink:href="#sprite1"/>
    <use height="13.2" transform="matrix(1.0, 0.0, 0.0, 1.0, -3.55, 5.7)" width="15.4" xlink:href="#shape2"/>
  </g>
  <defs>
    <g id="sprite0" transform="matrix(1.0, 0.0, 0.0, 1.0, -0.05, 0.0)">
      <use height="38.0" transform="matrix(1.0, 0.0, 0.0, 1.0, 0.05, 0.0)" width="32.05" xlink:href="#shape0"/>
    </g>
    <g id="shape0" transform="matrix(1.0, 0.0, 0.0, 1.0, -0.05, 0.0)">
      <path d="M27.35 7.4 Q29.5 11.55 30.9 16.15 32.35 20.85 32.05 25.65 31.7 30.6 27.85 33.75 24.05 36.95 19.1 37.8 L16.5 38.0 Q12.9 38.0 9.45 36.85 4.8 35.25 2.35 31.35 -0.2 27.4 0.05 23.0 0.25 18.6 2.05 13.7 3.85 8.75 7.0 5.05 10.1 1.3 14.7 0.1 L16.5 0.0 Q18.4 0.05 20.2 0.8 24.95 2.85 27.35 7.4" fill="#ffffff" fill-rule="evenodd" stroke="none"/>
    </g>
    <g id="sprite1" transform="matrix(1.0, 0.0, 0.0, 1.0, 0.45, 0.5)">
      <use height="38.95" transform="matrix(1.0, 0.0, 0.0, 1.0, -0.45, -0.5)" width="33.05" xlink:href="#shape1"/>
    </g>
    <g id="shape1" transform="matrix(1.0, 0.0, 0.0, 1.0, 0.45, 0.5)">
      <path d="M27.35 7.4 Q24.95 2.85 20.2 0.8 17.55 -0.3 14.7 0.1 10.1 1.3 7.0 5.05 3.85 8.75 2.05 13.7 0.25 18.6 0.05 23.0 -0.2 27.4 2.35 31.35 4.8 35.25 9.45 36.85 14.1 38.4 19.1 37.8 24.05 36.95 27.85 33.75 31.7 30.6 32.05 25.65 32.35 20.85 30.9 16.15 29.5 11.55 27.35 7.4 Z" fill="none" stroke="#333333" stroke-linecap="round" stroke-linejoin="round" stroke-width="1.0"/>
    </g>
    <g id="shape2" transform="matrix(1.0, 0.0, 0.0, 1.0, 3.55, -5.7)">
      <path d="M6.9 17.95 Q5.2 18.9 4.2 18.9 1.95 18.9 -1.05 15.9 -4.4 12.55 -3.3 8.5 -2.6 5.95 -0.15 5.7 2.25 5.45 3.9 7.7 6.45 4.9 8.8 6.05 11.55 7.4 11.85 10.0 12.05 12.15 9.6 15.65 8.65 16.9 6.9 17.95" fill="#b6b6b6" fill-rule="evenodd" stroke="none"/>
      <path d="M3.95 9.65 Q4.2 8.95 4.8 8.25 5.95 6.85 7.7 6.85 10.85 6.85 10.85 11.0 10.85 13.55 7.95 16.0 5.5 18.1 4.1 18.1 2.75 18.1 0.2 15.9 -2.65 13.45 -2.65 11.0 -2.65 6.85 0.45 6.85 3.25 6.85 3.95 9.65" fill="#ff3ac0" fill-rule="evenodd" stroke="none"/>
      <path d="M3.45 8.65 L3.4 8.5 3.85 10.15 Q4.05 11.3 3.65 11.6 2.85 12.25 1.1 10.55 -0.6 8.95 -0.65 8.0 -0.75 6.5 1.25 7.0 3.3 7.5 3.45 8.65" fill="#ff6ed2" fill-rule="evenodd" stroke="none"/>
      <path d="M10.15 13.1 Q9.45 14.55 9.1 14.6 8.4 14.75 8.25 12.9 8.25 11.65 7.85 10.9 6.4 9.35 6.15 8.35 5.95 7.45 6.9 7.05 L8.6 7.1 Q10.25 7.9 10.65 9.75 11.0 11.45 10.15 13.1" fill="#ff6ed2" fill-rule="evenodd" stroke="none"/>
      <path d="M9.25 10.95 L9.2 10.95 8.2 9.35 Q7.3 8.55 7.35 8.05 7.5 6.9 8.85 7.85 9.85 8.6 10.2 10.1 10.5 11.65 9.25 10.95" fill="#ffb0e6" fill-rule="evenodd" stroke="none"/>
      <path d="M3.2 9.5 L3.15 9.85 Q2.55 9.95 1.3 8.7 0.8 8.25 0.9 7.85 1.05 7.45 1.75 7.65 2.7 8.0 3.2 9.5" fill="#ffb0e6" fill-rule="evenodd" stroke="none"/>
      <path d="M4.2 17.95 Q2.35 18.1 -1.1 14.5 L-1.4 14.15 Q-3.05 11.75 -2.0 9.4 -1.4 8.1 -0.75 9.9 L0.6 13.6 Q1.15 14.65 2.85 16.1 4.25 17.3 4.2 17.95" fill="#d931a3" fill-rule="evenodd" stroke="none"/>
      <path d="M5.15 11.1 L5.65 12.6 4.45 11.8 Q3.7 11.0 3.7 10.2 3.7 9.8 4.5 8.7 5.3 7.5 5.75 7.75 6.2 8.05 5.15 10.1 L5.15 11.1" fill="#d931a3" fill-rule="evenodd" stroke="none"/>
    </g>
  </defs>
</svg>
